X: 36093
T: Schaeffer's
R: jig
M: 6/8
K: Gmajor
G2A B2c|edB GBd|ggg fgg|edB GAB|
c2e edc|Bcd g2d|fed B2d|BAA ABA|

